X:154
T:The Smiling Bride
M:6/8
L:1/8
R:jig
N:Learned from Kira Ott
Z:Michael Abraham Shulman
K:A
|:aed cdB|cde aga|bee dee|Bee bag|
aed cdB|cde aga|bee dBe|1 dBG A2a:|2 dBG A2B|
|:BcA EAc|def fed|cde aec|B2f fed|
BcA EAc|def fed|1 cde aed|cdB A2B:|2 ece fdf|geg bag|a6||
